Numix/16/status/indicator-keyboard-Tk-1.svg

<?xml version="1.0" encoding="UTF-8" standalone="no"?>
<svg
   xmlns:dc="http://purl.org/dc/elements/1.1/"
   xmlns:cc="http://creativecommons.org/ns#"
   xmlns:rdf="http://www.w3.org/1999/02/22-rdf-syntax-ns#"
   xmlns:svg="http://www.w3.org/2000/svg"
   xmlns="http://www.w3.org/2000/svg"
   xmlns:sodipodi="http://sodipodi.sourceforge.net/DTD/sodipodi-0.dtd"
   xmlns:inkscape="http://www.inkscape.org/namespaces/inkscape"
   viewBox="0 0 16 16"
   id="svg2"
   version="1.1"
   inkscape:version="0.91 r13725"
   sodipodi:docname="indicator-keyboard-Tk-1.svg">
  <metadata
     id="metadata14">
    <rdf:RDF>
      <cc:Work
         rdf:about="">
        <dc:format>image/svg+xml</dc:format>
        <dc:type
           rdf:resource="http://purl.org/dc/dcmitype/StillImage" />
      </cc:Work>
    </rdf:RDF>
  </metadata>
  <defs
     id="defs12" />
  <sodipodi:namedview
     pagecolor="#ffffff"
     bordercolor="#666666"
     borderopacity="1"
     objecttolerance="10"
     gridtolerance="10"
     guidetolerance="10"
     inkscape:pageopacity="0"
     inkscape:pageshadow="2"
     inkscape:window-width="640"
     inkscape:window-height="480"
     id="namedview10"
     showgrid="false"
     inkscape:zoom="14.75"
     inkscape:cx="8"
     inkscape:cy="8"
     inkscape:window-x="65"
     inkscape:window-y="24"
     inkscape:window-maximized="0"
     inkscape:current-layer="svg2" />
  <path
     style="fill:#ececec;fill-opacity:1"
     d="M 1.5996094 0 C 0.71320937 2.9605947e-16 0 0.71320937 0 1.5996094 L 0 14.400391 C 2.9605947e-16 15.286791 0.71320937 16 1.5996094 16 L 14.400391 16 C 15.286791 16 16 15.286791 16 14.400391 L 16 1.5996094 C 16 0.71320937 15.286791 0 14.400391 0 L 1.5996094 0 z M 8.4921875 4.1113281 L 8.4921875 8.5390625 C 8.6421875 8.3950625 8.8100937 8.2309219 8.9960938 8.0449219 C 9.1820937 7.8589219 9.3667344 7.6705156 9.5527344 7.4785156 C 9.7447344 7.2865156 9.9257499 7.0999219 10.09375 6.9199219 C 10.26175 6.7399219 10.405391 6.5813594 10.525391 6.4433594 L 11.228516 6.4433594 C 11.090516 6.5873594 10.933766 6.7496875 10.759766 6.9296875 C 10.585766 7.1096875 10.402938 7.2980937 10.210938 7.4960938 C 10.024937 7.6880938 9.8383438 7.8765 9.6523438 8.0625 L 9.1484375 8.5664062 C 9.3344375 8.6924063 9.5321875 8.8547344 9.7421875 9.0527344 C 9.9581876 9.2507344 10.169047 9.4671719 10.373047 9.7011719 C 10.583047 9.9291721 10.777031 10.166109 10.957031 10.412109 C 11.143031 10.652109 11.299781 10.879703 11.425781 11.095703 L 10.732422 11.095703 C 10.588422 10.855703 10.424281 10.622531 10.238281 10.394531 C 10.058281 10.160531 9.8661094 9.9403283 9.6621094 9.7363281 C 9.4641094 9.5323281 9.2625938 9.3476875 9.0585938 9.1796875 C 8.8605937 9.0116875 8.6721875 8.8698594 8.4921875 8.7558594 L 8.4921875 11.095703 L 7.90625 11.095703 L 7.90625 4.2207031 L 8.4921875 4.1113281 z M 2.3554688 4.859375 L 6.9628906 4.859375 L 6.9628906 5.390625 L 4.9648438 5.390625 L 4.9648438 11.095703 L 4.3535156 11.095703 L 4.3535156 5.390625 L 2.3554688 5.390625 L 2.3554688 4.859375 z M 13.375 8.8417969 L 13.644531 8.8417969 L 13.644531 12.896484 L 13.263672 12.896484 L 13.263672 9.421875 C 13.220772 9.468675 13.165903 9.5157063 13.095703 9.5664062 C 13.029403 9.6171062 12.952987 9.66805 12.867188 9.71875 C 12.781387 9.76555 12.691256 9.812575 12.597656 9.859375 C 12.504056 9.902275 12.410006 9.9375437 12.316406 9.9648438 L 12.205078 9.671875 C 12.439078 9.5899751 12.648731 9.4880812 12.832031 9.3632812 C 13.015331 9.2345813 13.1956 9.0601969 13.375 8.8417969 z "
     id="path4" />
</svg>

<svg xmlns="http://www.w3.org/2000/svg" viewBox="0 0 16 16">
 <path d="m 1.6 0 c -0.886 0 -1.6 0.713 -1.6 1.6 l 0 12.801 c 0 0.886 0.713 1.6 1.6 1.6 l 12.801 0 c 0.886 0 1.6 -0.713 1.6 -1.6 l 0 -12.801 c 0 -0.886 -0.713 -1.6 -1.6 -1.6 l -12.801 0 z m 6.893 4.111 l 0 4.428 c 0.15 -0.144 0.318 -0.308 0.504 -0.494 c 0.186 -0.186 0.371 -0.374 0.557 -0.566 c 0.192 -0.192 0.373 -0.379 0.541 -0.559 c 0.168 -0.18 0.312 -0.339 0.432 -0.477 l 0.703 0 c -0.138 0.144 -0.295 0.306 -0.469 0.486 c -0.174 0.18 -0.357 0.368 -0.549 0.566 c -0.186 0.192 -0.373 0.38 -0.559 0.566 l -0.504 0.504 c 0.186 0.126 0.384 0.288 0.594 0.486 c 0.216 0.198 0.427 0.414 0.631 0.648 c 0.21 0.228 0.404 0.465 0.584 0.711 c 0.186 0.24 0.343 0.468 0.469 0.684 l -0.693 0 c -0.144 -0.24 -0.308 -0.473 -0.494 -0.701 c -0.18 -0.234 -0.372 -0.454 -0.576 -0.658 c -0.198 -0.204 -0.4 -0.389 -0.604 -0.557 c -0.198 -0.168 -0.386 -0.31 -0.566 -0.424 l 0 2.34 l -0.586 0 l 0 -6.875 l 0.586 -0.109 z m -6.137 0.748 l 4.607 0 l 0 0.531 l -1.998 0 l 0 5.705 l -0.611 0 l 0 -5.705 l -1.998 0 l 0 -0.531 z m 11.02 3.982 l 0.27 0 l 0 4.055 l -0.381 0 l 0 -3.475 c -0.043 0.047 -0.098 0.094 -0.168 0.145 c -0.066 0.051 -0.143 0.102 -0.229 0.152 c -0.086 0.047 -0.176 0.094 -0.27 0.141 c -0.094 0.043 -0.188 0.078 -0.281 0.105 l -0.111 -0.293 c 0.234 -0.082 0.444 -0.184 0.627 -0.309 c 0.183 -0.129 0.364 -0.303 0.543 -0.521 z" style="fill:#ececec;fill-opacity:1"/>
</svg>
